webapp/src/main/webapp/src/assets/svgs/assessment-icons/Math_3-5_MeasurementandData.svg

<?xml version="1.0" encoding="utf-8"?>
<!-- Generator: Adobe Illustrator 24.0.0, SVG Export Plug-In . SVG Version: 6.00 Build 0)  -->
<svg version="1.1" id="Layer_1" xmlns="http://www.w3.org/2000/svg" xmlns:xlink="http://www.w3.org/1999/xlink" x="0px" y="0px"
	 viewBox="0 0 100 100" style="enable-background:new 0 0 100 100;" xml:space="preserve">
<style type="text/css">
	.st0{fill:none;}
	.st1{fill:#FFFFFF;}
	.st2{fill:#FFFFFF;stroke:#FFFFFF;stroke-width:0.25;stroke-miterlimit:10;}
	.st3{fill:none;stroke:#000000;stroke-width:0.25;stroke-linecap:round;stroke-miterlimit:10;}
	.st4{fill:#D9D9D9;}
	.st5{fill:none;stroke:#000000;stroke-width:2;stroke-linejoin:round;stroke-miterlimit:10;}
	.st6{fill:none;stroke:#000000;stroke-width:0.4396;stroke-miterlimit:10;}
	.st7{fill:none;stroke:#000000;stroke-linecap:round;stroke-linejoin:round;}
	.st8{fill:none;stroke:#000000;stroke-linecap:round;stroke-linejoin:round;stroke-miterlimit:10;}
</style>
<g>
	<path d="M97.84,84.56v8.79H96.2v-8.79h-2.34v3.78h-0.24v-3.78h-2.34v5.33h-0.57v-5.33h-2.34v3.78h-0.24v-3.78h-2.34v6.98h-1.07
		v-6.98h-2.34v3.78h-0.24v-3.78H79.8v5.33h-0.57v-5.33h-2.34v3.78h-0.24v-3.78h-2.34v1.35v7.43h-1.64v-7.43v-1.35h-2.34v3.78h-0.24
		v-3.78h-2.34v5.33h-0.57v-5.33h-2.34v3.78H64.6v-3.78h-2.34v6.98h-1.07v-6.98h-2.34v3.78h-0.24v-3.78h-2.34v5.33H55.7v-5.33h-2.34
		v3.78h-0.24v-3.78h-2.34v1.35v7.43h-1.64v-7.43v-1.35h-2.34v3.78h-0.24v-3.78h-2.34v5.33h-0.57v-5.33h-2.34v3.78h-0.24v-3.78h-5.75
		v3.78h-0.24v-3.78h-2.34v5.33h-0.57v-5.33h-2.34v3.78H29.6v-3.78h-2.34v8.79h-1.64v-8.79h-2.34v3.78h-0.24v-3.78H20.7v5.33h-0.57
		v-5.33h-2.34v3.78h-0.24v-3.78h-2.34v6.98h-1.07v-6.98h-2.34v3.78h-0.24v-3.78H9.23v5.33H8.65v-5.33H6.32v3.78H6.07v-3.78H3.74
		v8.66H2.09v-8.66H0v15.42h99.93V84.56H97.84z M38.74,91.54h-1.07v-6.89h1.07V91.54z"/>
	<path d="M1.11,72.7c0.05,0,0.1,0.01,0.14,0.01c0.59,0,1.1-0.44,1.17-1.03L9.8,13.02c0.11,0.03,0.21,0.07,0.33,0.09
		c0.65,0.15,1.32,0.22,1.98,0.22c3.87,0,7.34-2.56,8.53-6.19l21.12,9.45c0.29,0.13,0.61,0.14,0.9,0.03c0.3-0.11,0.53-0.33,0.66-0.62
		c0.13-0.29,0.14-0.61,0.03-0.9c-0.11-0.3-0.33-0.53-0.62-0.66L10.59,0.05C10.25-0.11,9.85-0.09,9.53,0.1
		C9.2,0.28,8.98,0.61,8.93,0.98L0.08,71.38C0,72.02,0.46,72.62,1.11,72.7z M10.47,11.61c-0.16-0.04-0.31-0.08-0.47-0.13l1.08-8.62
		l8.15,3.65c-0.52,1.71-1.62,3.17-3.15,4.14C14.4,11.7,12.41,12.05,10.47,11.61z"/>
	<rect x="37.61" y="19.8" transform="matrix(0.5902 -0.8073 0.8073 0.5902 -0.5519 39.543)" width="2.11" height="1.04"/>
	<rect x="26.5" y="34" transform="matrix(0.5908 -0.8068 0.8068 0.5908 -16.2768 36.9388)" width="3.55" height="1.04"/>
	<rect x="30.11" y="29.07" transform="matrix(0.5903 -0.8072 0.8072 0.5903 -10.8209 37.8579)" width="3.55" height="1.04"/>
	<rect x="33.71" y="24.14" transform="matrix(0.5903 -0.8072 0.8072 0.5903 -5.3668 38.7505)" width="3.55" height="1.04"/>
	<polygon points="9.62,60.89 11.72,58.02 10.88,57.41 8.78,60.28 	"/>
	<polygon points="13.22,55.96 15.32,53.1 14.48,52.48 12.38,55.35 	"/>
	<polygon points="24.04,41.18 26.14,38.32 25.3,37.7 23.2,40.57 	"/>
	<polygon points="15.99,50.42 16.83,51.04 18.93,48.17 18.09,47.56 	"/>
	<rect x="19.29" y="43.85" transform="matrix(0.5907 -0.8069 0.8069 0.5907 -27.1795 35.1608)" width="3.55" height="1.04"/>
	<polygon points="6.86,64.66 8.11,62.95 7.27,62.34 6.02,64.05 	"/>
	<rect x="85.17" y="33.45" width="7.25" height="32.64"/>
	<rect x="74.28" y="44.33" width="7.26" height="21.76"/>
	<rect x="52.52" y="51.58" width="7.25" height="14.51"/>
	<rect x="63.4" y="37.07" width="7.25" height="29.02"/>
	<polygon points="41.64,29.82 41.64,73.34 99.68,73.34 99.68,69.72 45.27,69.72 45.27,29.82 	"/>
</g>
</svg>

<svg id="Layer_1" data-name="Layer 1" xmlns="http://www.w3.org/2000/svg" viewBox="0 0 100 100"><defs><style>.cls-1{fill:#231f20;}</style></defs><title> </title><path class="cls-1" d="M97.84,84.56v8.79H96.2V84.56H93.86v3.78h-.24V84.56H91.28v5.33h-.57V84.56H88.37v3.78h-.24V84.56H85.79v7H84.72v-7H82.38v3.78h-.24V84.56H79.8v5.33h-.57V84.56H76.89v3.78h-.24V84.56H74.31v8.79H72.67V84.56H70.33v3.78h-.24V84.56H67.75v5.33h-.57V84.56H64.84v3.78H64.6V84.56H62.26v7H61.19v-7H58.86v3.78h-.25V84.56H56.28v5.33H55.7V84.56H53.37v3.78h-.25V84.56H50.79v8.79H49.14V84.56H46.81v3.78h-.24V84.56H44.23v5.33h-.58V84.56H41.32v3.78h-.24V84.56H35.33v3.78h-.24V84.56H32.75v5.33h-.57V84.56H29.84v3.78H29.6V84.56H27.26v8.79H25.62V84.56H23.28v3.78H23V84.56H20.7v5.33h-.57V84.56H17.79v3.78h-.24V84.56H15.21v7H14.14v-7H11.81v3.78h-.25V84.56H9.23v5.33H8.65V84.56H6.32v3.78H6.07V84.56H3.74v8.66H2.09V84.56H0V100H99.93V84.56Zm-59.1,7H37.67V84.65h1.07Z"/><path class="cls-1" d="M1.11,72.7h.15a1.19,1.19,0,0,0,1.17-1L9.8,13l.33.09a8.84,8.84,0,0,0,2,.22,9.06,9.06,0,0,0,8.54-6.19l21.12,9.45a1.17,1.17,0,0,0,.9,0,1.2,1.2,0,0,0,.66-.63,1.17,1.17,0,0,0,0-.9,1.22,1.22,0,0,0-.62-.66L10.59.05A1.14,1.14,0,0,0,9.53.1a1.18,1.18,0,0,0-.6.88L.08,71.38A1.19,1.19,0,0,0,1.11,72.7Zm9.36-61.09L10,11.48l1.08-8.62L19.23,6.5a7.45,7.45,0,0,1-8.76,5.11Z"/><rect class="cls-1" x="37.61" y="19.8" width="2.11" height="1.04" transform="translate(-0.55 39.54) rotate(-53.83)"/><rect class="cls-1" x="26.5" y="34" width="3.55" height="1.04" transform="translate(-16.28 36.94) rotate(-53.79)"/><rect class="cls-1" x="30.11" y="29.07" width="3.55" height="1.04" transform="translate(-10.82 37.86) rotate(-53.82)"/><rect class="cls-1" x="33.71" y="24.14" width="3.55" height="1.04" transform="translate(-5.37 38.75) rotate(-53.82)"/><polygon class="cls-1" points="9.62 60.89 11.72 58.02 10.88 57.41 8.78 60.28 9.62 60.89"/><polygon class="cls-1" points="13.22 55.96 15.32 53.1 14.48 52.48 12.38 55.35 13.22 55.96"/><polygon class="cls-1" points="24.04 41.18 26.14 38.32 25.3 37.7 23.2 40.57 24.04 41.18"/><polygon class="cls-1" points="15.99 50.42 16.83 51.04 18.93 48.17 18.09 47.56 15.99 50.42"/><rect class="cls-1" x="19.29" y="43.85" width="3.55" height="1.04" transform="translate(-27.18 35.16) rotate(-53.8)"/><polygon class="cls-1" points="6.86 64.66 8.11 62.95 7.27 62.34 6.02 64.05 6.86 64.66"/><rect class="cls-1" x="85.17" y="33.45" width="7.25" height="32.64"/><rect class="cls-1" x="74.28" y="44.33" width="7.26" height="21.76"/><rect class="cls-1" x="52.52" y="51.58" width="7.25" height="14.51"/><rect class="cls-1" x="63.4" y="37.07" width="7.25" height="29.02"/><polygon class="cls-1" points="41.64 29.82 41.64 73.34 99.68 73.34 99.68 69.72 45.27 69.72 45.27 29.82 41.64 29.82"/></svg>
